X:10
T:Cowboy Jig
S:Bernie Waugh
R:Jig
M:6/8
L:1/8
K:G
|:\
"G"GDE G2A|Bgf gdB|"Am"ABc BGA|"C"BcA "D"BGF|
"G"GDE G2A|Bgf gdB|"C"ABc "D"BGA|1"G"BGF G3:|2"G"BGF GBd||
|:\
"Em"e2e e3|egf edB|"Bm"d2d d3|dge dBG|
"C"c2d e2f|"G"gdB "Am"A2c|"C"BGA "D"BcA|1"G"BGF GBd:|2"G"BGF G3|]

